X: 1
T: HUMORS OF CASTLE LYON -- JIG
B: Ryan's Mammoth Collection of Fiddle Tunes
R: jig
M: 6/8
L: 1/8
Z: Contributed 20010526031217 by John Chambers jc:trillian.mit.edu
K: G
   vG3 BAG | d2G BAG | A2B c2d | ecA A2B \
|   G3 BAG | d2G BAG | ABA B2A | BGE E2z :|
|:ukg3 gec | g3  gdB | A2B c2d | ecA A3 \
|   g3 gdB | g3  gdB | AGA B2A | BGE E2z :|
